X: 20147
T: Joan Beaton's
R: reel
M: 4/4
K: Amajor
cB|AEEE cBce|fefa ecBA|AEEE cBce|faecB2cB|
AEEE cBce|fefa ecBA|f2fa fece|1 ecBcA2cB:|2 ecBcA2Ad||
|:cdef eAce|fefa ecBc|AEEE cBce|faecB2Bd|
[1 cdef eAce|fefa ecBA|f2fa fece|ecBcA2Ad:|
[2 AEEE cBce|fefa ecBA|f2fa fece|ecBcA2||

